X:1
T:Oujda
L:1/8
Q:1/4=120
M:4/4
I:linebreak $
K:Gmin
V:1 treble 
V:1
"^Intro" A,2 DD D2 D2 | A,2 A,2 D4 | A,2 DD D2 D2 | A,2 A,2 D4 |:$ DDED ^FDFG | ABAG ^FG A2 | %6
 DDED ^FDFG | ABAG ^FE D2 |$ DDED ^FDFG | ABAG ^FGAd | ^cBcB ABAG | ^FEGF D4 ::$ d3 ^c A3 c | %13
{de} d^ced cBAG | ^c3 B G3 d |{B^c} BAGA ^F2 D2 |$ d3 ^c A3 c | ^cded cB A2 | %18
{^FG} F2 DF{EF} E2 DE | D^FGA F4 :| %20
